img/icons/as-fb-h.svg

<svg xmlns="http://www.w3.org/2000/svg" width="65" height="65" viewBox="0 0 65 65"><path d="M52.813 0H12.187C5.455 0 0 5.455 0 12.188v40.624C0 59.546 5.455 65 12.187 65h40.626C59.546 65 65 59.546 65 52.812V12.188C65 5.455 59.546 0 52.813 0zM51.16 35.005h-6.082v22.51H34.92v-22.51h-3.94v-7.583h3.94v-4.829C34.922 16.26 37.554 12.5 45.015 12.5h7.563v7.555h-4.395c-2.905 0-3.093 1.083-3.093 3.108l-.012 4.257h6.909l-.827 7.585z" fill="#4C66A5"/></svg>

<svg version="1.1" xmlns="http://www.w3.org/2000/svg" xmlns:xlink="http://www.w3.org/1999/xlink" width="65" height="65" viewBox="0 0 65 65"><path id="fb" d="M52.813,0.000 C52.813,0.000 12.187,0.000 12.187,0.000 C5.455,0.000 -0.000,5.455 -0.000,12.188 C-0.000,12.188 -0.000,52.812 -0.000,52.812 C-0.000,59.546 5.455,65.000 12.187,65.000 C12.187,65.000 52.813,65.000 52.813,65.000 C59.546,65.000 65.000,59.546 65.000,52.812 C65.000,52.812 65.000,12.188 65.000,12.188 C65.000,5.455 59.546,0.000 52.813,0.000 zM51.160,35.005 L45.078,35.005 L45.078,57.515 L34.920,57.515 L34.920,35.005 L30.980,35.005 L30.980,27.422 L34.920,27.422 C34.920,27.422 34.920,22.593 34.920,22.593 C34.922,16.260 37.554,12.500 45.015,12.500 C45.015,12.500 52.578,12.500 52.578,12.500 L52.578,20.055 C52.578,20.055 48.183,20.055 48.183,20.055 C45.278,20.055 45.090,21.138 45.090,23.163 C45.090,23.163 45.078,27.420 45.078,27.420 L51.987,27.420 L51.160,35.005 z" fill="#4C66A5" /></svg>
